X:1
T:Title
%%score { ( 1 3 ) | 2 }
L:1/8
Q:1/4=162
M:6/4
K:Ab
V:1 treble nm="Grand Piano"
V:3 treble 
V:2 bass 
V:1
 [CE]4 [DF]2 [CE]4 [CE]2 | [EA]4 B2 c6 | B4 B2 B4 [Ec]2 | [FA]4 [DF]2 [CE]6 | %4
w: J.~Raymond~Neff * * *||||
 [CE]4 [DF]2 [CE]4 [CE]2 | [EA]4 [DF]2 [CE]6 | A4 B2 c4 A2 |[M:5/4] c4 B2 [CA]4 |[M:1/4] [CE]2 | %9
w: |||||
[M:6/4] [CA]4 [DB]2 [Ec]4 [Ee]2 | [Fd]4 [FB]2 [Ec]6 | B4 c2 B4 [=DF]2 | [=DG]4 [DF]2 z4 _D2 | %13
w: ||||
 [CE]4 [DF]2 [CE]4 [CE]2 | z6 [CA]6 | G4 A2 B4 d2 | c6 B6 | [CA]12 |] %18
w: |||||
V:2
 [A,,A,]4 [A,,A,]2 [A,,A,]4 [A,,A,]2 | [C,A,]4 [E,G,E]2 [A,E]6 | %2
 [E,G,E]4 [E,G,E]2 [E,G,E]4 [A,,A,]2 | [D,A,]4 [D,A,]2 [A,,A,]6 | %4
 [A,,A,]4 [A,,A,]2 [A,,A,]4 [A,,A,]2 | [C,A,]4 [D,A,]2 [A,,A,]6 | %6
 [F,A,C]4 [F,A,D]2 [E,A,E]4 [E,CE]2 |[M:5/4] [E,A,E]4 [E,G,D]2 [A,,A,]4 |[M:1/4] [A,,A,]2 | %9
[M:6/4] [A,,A,]4 [A,,A,]2 [A,,A,]4 [C,A,]2 | [D,A,]4 [D,A,]2 [A,,A,]6 | %11
 [E,G,E]4 [E,A,E]2 [E,G,E]4 [B,,B,]2 | [B,,B,]4 [B,,A,]2 [E,G,]6 | %13
 [A,,A,]4 [A,,A,]2 [A,,A,]4 [A,,A,]2 | [D,A,]4 [B,,E,]2 .[A,,E,]6 | %15
 [E,B,D]4 [E,A,C]2 [E,G,E]4 [E,B,E]2 | [E,A,E]6 [E,G,D]6 | [A,,A,]12 |] %18
V:3
 x12 | x12 | x12 | x12 | x12 | x12 | x12 |[M:5/4] x10 |[M:1/4] x2 |[M:6/4] x12 | x12 | x12 | %12
 z6 E6 | x12 | [DF]4 [DG]2 z4 A,2 | x12 | x12 | x12 |] %18

